X:149
T:Borks Hornpipe TS.149
M:C|
L:1/8
Q:1/2=90
S:Thomas Sands’ MS,1810,Lincolnshire
R:.hornpipe
C:Pencil note “Bonum” in MS
N:Probable error in MS amended in Bar 1
O:England;Lincolnshire
Z:vmp.Ruairidh Greig, 2011
K:A
d2|”semi-quavers in ms”cdecA2A2|GABGE4|FEFG AFED|CDECB,4|
cdec A2A2|GABG E2c2|defg aefd|c2A2A2:|
|:e2|fgaf ecAc|fgaf ecAc|BABc dB ba|g2e2e2(Ac)|
d2fd c2ec|B2bg aedc|defd cABG|A2A2A2:|]

